X:1
T:Deus Abraham
T:Camille Saint-Saëns (1885)
T:Deus Abraham
T:Copyright © 2015 by The Choral Public Domain Library. Edition may be freely distributed, duplicated, performed or recorded.
T:Copyright © 2015 by The Choral Public Domain Library. Edition may be freely distributed, duplicated, performed or recorded.
T:Copyright © 2015 by The Choral Public Domain Library. Edition may be freely distributed, duplicated, performed or recorded.
T:Copyright © 2015 by The Choral Public Domain Library. Edition may be freely distributed, duplicated, performed or recorded.
T:Copyright © 2015 by The Choral Public Domain Library. Edition may be freely distributed, duplicated, performed or recorded.
T:Copyright © 2015 by The Choral Public Domain Library. Edition may be freely distributed, duplicated, performed or recorded.
T:Copyright © 2015 by The Choral Public Domain Library. Edition may be freely distributed, duplicated, performed or recorded.
T:Copyright © 2015 by The Choral Public Domain Library. Edition may be freely distributed, duplicated, performed or recorded.
T:Copyright © 2015 by The Choral Public Domain Library. Edition may be freely distributed, duplicated, performed or recorded.
T:Copyright © 2015 by The Choral Public Domain Library. Edition may be freely distributed, duplicated, performed or recorded.
T:Copyright © 2015 by The Choral Public Domain Library. Edition may be freely distributed, duplicated, performed or recorded.
T:Copyright © 2015 by The Choral Public Domain Library. Edition may be freely distributed, duplicated, performed or recorded.
C:Camille Saint-Saëns
C:(1885)
Z:Alleluia verse for Corpus Christi
Z:Copyright © 2015 by The Choral Public Domain Library. Edition may be freely distributed, duplicated, performed or recorded.
%%score 1 { ( 2 4 ) | ( 3 5 ) } { ( 6 9 10 ) | ( 7 8 ) }
L:1/8
Q:1/4=64
M:4/4
K:F
V:1 treble nm="Soprano Solo" snm="S. Solo"
V:2 treble nm="Choir" snm="Choir ad lib."
V:4 treble 
V:3 bass 
V:5 bass 
V:6 treble nm="Organ" snm="Organ and/or  harp"
V:9 treble 
V:10 treble 
V:7 bass 
V:8 bass 
V:1
 z8 | z8 |!p! C2 F2 E>D C z | C2 B2 A>G F z | c2 cc c2 D2- | DBAG (F2 E) z |!<(! E2 d2 c>B A z | %7
w: ||De- us Ab- ra- ham,|De- us I- sa- ac|et De- us Ja- cob|_ vo- bis- cum sit: _|De- us Ab- ra- ham,|
 ^G2 f2 e>d!<)! c z | c2 f_e dB G2 | G!>(!ABE!>)! F2 z2 | z E G2 DE FA | (A2 G>)F (G2 E) z | %12
w: De- us I- sa- ac|et De- us Ja- * cob|vo- * bis- cum sit:|et ip- se _ con- *|ju- * gat vos, _|
 z!<(! ^G =B2 ^FGA^c | ^c2 =B>A B2!<)! ^G z | z!mf! E^G=B ^c ^f2 e | e^GA=B B2 ^D z | %16
w: et ip- se con- ju- gat|vos im- ple- at- que|be- ne- dic- ti- o- nem|su- * am in vo- bis,|
 z!p! EFG A d2 c | cEFG (G2 =B,2) | C2 z2 z4 | z8 | z8 | z8 | z8 | z8 | z8 | z8 | z8 | z8 | z8 | %29
w: be- ne- dic- ti- o- nem|su- * am in vo- *|bis.|||||||||||
 z8 | z8 | z8 | z8 |"^dolce" z A GF EBAG |!<(! c2 B>A d2!<)! G2 | z!f! FAc d g2 f | %36
w: ||||Et ip- * se con- ju- gat|vos, im- ple- at- que|be- ne- dic- ti- o- nem|
 fABc!>(! (c3!>)! E) | z F!>(!GA A d2 c | z DEF F B2!>)! A | z"^rit."!p! B,CD F4 | F4 z4 | z8 |] %42
w: su- * am in vo- bis,|be- ne- dic- ti- o- nem,|be- ne- dic- ti- o- nem|su- am in vo-|bis.||
V:2
 z8 | z8 | z8 | z8 | z8 | z8 | z8 | z8 | z8 | z8 | z8 | z8 | z8 | z8 | z8 | z8 | z8 | z8 | z8 | %19
w: |||||||||||||||||||
w: |||||||||||||||||||
 z8 |!p! C [CF]2 [CF] E>D C z | C B2 B A>G F z | [_Ec]4 [Dc]>D D2- | DBAG F2 E z | %24
w: |Be- a- ti om- * nes,|qui ti- ment * * *|qui am- bu- lant|_ in vi- is e- jus,|
w: |||||
!<(! E [Ed]2 [Ed] [Fc]>[GB] A z | ^G [Gf]2 [Gf] [Ae]>[=Bd]!<)! c z |!mf! c2 f_e dB G2- | %27
w: be- a- ti om- * nes,|be- a- ti om- * nes,|qui am- * * bu- lant|
w: ||qui am- * bu- * lant|
 G!>(!BAG G2!>)! F z | z4"^sotto voce" z2 FF | !>!F>F F2 z2 FF | F>F F2 z FFF | %31
w: vi- * is * e- jus,|De- us|Ab- ra- ham, De- us|I- sa- ac et De- us|
w: _ in vi- is e- jus,||||
 !>!_A2 !>!F2 !>!_D>!>!D !>!_E2 | F4 z4 | z8 | z8 |!f! c4 (=B2 _B2) | A2 GF E!>(!G F!>)!E | %37
w: Ja- cob vo- bis- cum|sit:|||et ip- *|se con- * ju- * gat *|
w: ||||||
!p! [CF]2!>(! (F2 E2 _E2!>)! | D8) | [B,F]4 z4 | z4!pp! [CF]4 | [CF]2 z2 z4 |] %42
w: vos, a- * *||men,|a-|men.|
w: |||||
V:3
 z8 | z8 | z8 | z8 | z8 | z8 | z8 | z8 | z8 | z8 | z8 | z8 | z8 | z8 | z8 | z8 | z8 | z8 | z8 | %19
w: |||||||||||||||||||
w: |||||||||||||||||||
w: |||||||||||||||||||
w: |||||||||||||||||||
 z8 |!p! [F,A,] [F,A,]2 [F,A,] [G,B,][F,A,][E,G,][C,E,] | %21
w: ||
w: ||
w: |Be- a- ti om- * nes, qui|
w: ||
 [D,F,][C,E,] [D,F,][E,G,] [F,A,][G,B,][A,C] z | A,4 F,3 ^F, | G,DCB, A,2 G, z | %24
w: |||
w: |||
w: ti- * ment * Do- mi- num,|qui am- bu-|in * vi- is e- jus,|
w: |qui am- bu-|lant in vi- is e- jus,|
 G,!<(! G,2 G, A,>B, CD- | D=B,CD E2!<)! E z |!mf! F_EDC D4 | z!>(! G,A,B, B,2!>)! A, z | %28
w: ||||
w: ||||
w: be- a- ti om- * nes, *|* * * * om- nes,|qui * am- bu- lant|* is * e- jus,|
w: be- a- ti om- * nes, be-|* * a- ti om- nes,|qui _ am- bu- lant|in vi- is e- jus,|
 z4"^sotto voce" z2 F,F, | !>!F,>F, F,2 z2 F,F, | F,>F, F,2 z F,F,F, | %31
w: |||
w: |||
w: |||
w: |||
 !>!_A,2 !>!F,2 !>!_D,>!>!D, !>!_E,2 | F,4 z4 | z8 | z8 |!f! C4 G,2 D2 | %36
w: |||||
w: |||||
w: |||||
w: |||||
 C2 B,A, G,!>(!B, A,!>)!G, | [F,A,]2 z2 z4 |!>(! [F,,F,]8!>)! | [F,,D,]4 z4 | z4!pp! A,4 | %41
w: |||||
w: |||||
w: ||a-|men,||
w: |||||
 A,2 z2 z4 |] %42
w: |
w: |
w: |
w: |
V:4
 x8 | x8 | x8 | x8 | x8 | x8 | x8 | x8 | x8 | x8 | x8 | x8 | x8 | x8 | x8 | x8 | x8 | x8 | x8 | %19
w: |||||||||||||||||||
 x8 | x8 | C C2 C DEF x | x8 | x8 | x8 | x8 | c2 F2- F^FG=F | E2 E2 E2 F x | x8 | x8 | x8 | x8 | %32
w: ||* * * Do- mi- num,|||||||||||
 x8 | x8 | x8 | F4 F4 | F2 C2 C2 C2 | x8 | (B,4 A,4) | x8 | x8 | x8 |] %42
w: ||||||||||
V:5
 x8 | x8 | x8 | x8 | x8 | x8 | x8 | x8 | x8 | x8 | x8 | x8 | x8 | x8 | x8 | x8 | x8 | x8 | x8 | %19
w: |||||||||||||||||||
w: |||||||||||||||||||
w: |||||||||||||||||||
 x8 | x8 | x8 | F,4 B,,C, B,,A,, | G,,2 A,,B,, C,2 C, x | B,, B,,2 B,, A,,>G,, F,,F, | %25
w: ||||||
w: ||||||
w: |||* * * lant _|_ _ _ _ _|* * * * * * be-|
 E,D, C,=B,, C,>B,, A,, x | A,2 A,,A,, B,,3 =B,, | C,2 C,2 C,2 F, x | x8 | x8 | x8 | x8 | x8 | x8 | %34
w: |||||||||
w: |||||||||
w: a- * ti _ _ _ _|_ _ _ _ _||||||||
 x8 | A,,4 G,,4 | C,2 C,2 C,2 C,2 | x8 | x8 | x8 | x4 [F,,C,]4 | [F,,C,]2 x6 |] %42
w: ||||||||
w: ||||||||
w: ||||||||
V:6
 z8 | z8 | (C2 F2 E>D C2) | (C2 B2 A>G F) z | c4 D4- | D (BAG F2 E2) | z2 E2 F>G A2 | ^G4 A>=B c2 | %8
 c2 F2- F^FG=F | EFEG F2 z2 | z E G2 DEFA | ([FA]2 [EG]>[DF] [EG]2 [CE]) z | z ^G =B2 ^FGA^c | %13
 A^G^FE!<(! F2 G!<)!A |!mf! =B4 [A^c]4 | z ^G^FE ^DAGF |!p! E2 FG A2 GA | G2 FE D2 F2 | %18
 (c'efg) (g_Bcd) | (dFGA) (A2 G2 |!p! F4) E>D C z | C2 B2 A>G F z | c4 D4- | D (BAG F2 E2) | %24
 z2!<(! E2 F>G A2 | ^G4 A>!<)!=B c2 |!mf! c2 F2- F^FG=F | E!>(!BAG [B,EG]2!>)! [A,F]2 | %28
 z"^sotto voce" F3 z F3 | z F3 z F3 | z F3 z F3 | (_A2 F2 [B,_D]2 [C_E]2) |!<(!!>(! F8!<)!!>)! | %33
 [=A,CF]4 EBAG |!<(! z [Ac][GB][FA] z [Fd][Ec]!<)![Ge] |!f! [cf]4 =B2 _B2 | A2 GF E!>(!GF!>)!E | %37
!p! F4 E2 _E2 | D8 | z8 | z4 F4- | F2 z2 z4 |] %42
V:7
!p! z4 C,4- | C,A,F,G, [F,A,][A,C][F,A,][G,B,] | A,F,C,F, G,F,E,[C,E,] | %3
 [D,F,][C,E,][D,F,][E,G,] [F,A,][G,B,][A,C][B,D] | [A,_E]4 F,3 ^F, | G, z z2 A,2 G,2 | %6
 B,,4 A,,>G,, F,,F, | E,2 D,2 C,>=B,, A,,A, | A,2 A,,2 B,,3 =B,, | z A,G,B, A,2 z2 | %10
 [C,,C,]3 E,, G,,4 | z2 z G,,- G,,A,,/=B,,/ C,2 | [E,,=B,,]8- | [E,,B,,]4 z4 | ^G,4 ^F,4 | %15
 ^G,=B,A,G, ^F,^CB,A, | [C,G,]2 D,E, F,2 E,F, | G,8 |"^Ped." [C,,C,]8- | z/ D/A,/F,/ z2 E,2 B,2 | %20
 A,F,C,F, G,F,E,[C,E,] | [D,F,][C,E,][D,F,][E,G,] [F,A,][G,B,][A,C][B,D] | [A,_E]4 F,3 ^F, | %23
 G, z z2 A,2 G,2 | B,,4 A,,>G,, F,,F, | E,D,C,=B,, C,>B,, A,,A, | A,2 A,,2 B,,3 =B,, | %27
 z G,A,B, C,4 | _D,2 A,,B,, C,2 F,,2 | _D,2 A,,B,, C,2 F,,2 | _D,2 A,,B,, C,2 F,,2 | F,,4 _A,,4 | %32
 _A,,2 =A,,2 B,,2 =B,,2 | z4 z G,A,B, | z [F,A,][G,B,][A,C] z G,2 C | [F,C]4 D4 | %36
 C2 B,A, G,B,A,G, | [A,C]8 | B,4 A,4 |"^rit." [D,F,B,]4 z2!pp! [G,B,]2 | [A,C]8- | [A,C]2 z2 z4 |] %42
V:8
 F,,8- | F,,8- | F,,8- | F,,8 | F,,C,A,,F,, B,,C,B,,A,, | G,,2 A,,B,, C,3 C, | x8 | x8 | x8 | %9
 C,4 F,C,A,,F,, | x8 | x6 z C,, | x8 | x8 | x8 | =B,,8 | x8 | x8 | x8 | [C,,C,]8 | F,,8- | F,,8 | %22
 F,,C,A,,F,, B,,C,B,,A,, | G,,2 A,,B,, C,3 C, | x8 | x8 | x8 | C,4- C,C,, F,,2 | x8 | x8 | x8 | %31
 x8 | x8 | C,8- | C,4 B,,4 | A,,4 G,,4 | C,8 | F,,8- | F,,8- | F,,4 x4 | [F,,C,]8- | %41
 [F,,C,]2 x2 x4 |] %42
V:9
 x8 | x8 | x2 A,2 B,A,G, z | C4 DEF x | F4 B,4- | B, DCB, z =B, C2 | z G,2 C C3 D | E =B,2 E E4 | %8
 F_E DC D4 | C6 x2 | z CEG, =B,CDF | x8 | z E^G=B, ^DE^FA | ^FE^D^C D=B,EF | E8 | x8 | x2 C6 | %17
 E2 DC =B,2 D2 | z/ (E/C/G,/) z/ (G/E/C/) z/ (D/_B,/G,/) z/ (G/D/B,/) | z2 z/ (F/D/A,/) ACDE | %20
 F2 A,2 B,A,G, z | C4 DEF z | F4 B,4- | B, DCB, z =B, C2 | z G,2 C C3 D- | D=B,CD E4 | F_E DC D4 | %27
 E4 x4 | z B,C_D z A,[G,B,][A,C] | z B,C_D z A,[G,B,][A,C] | z B,C_D z A,[G,B,][A,C] | %31
 [_A,_D]4 A,4 | F,4 _A,4 | x4 E2 FE | x8 | F4 F4 | x8 | x8 | x8 | x8 | x8 | x8 |] %42
V:10
 x8 | x8 | x8 | x8 | x8 | x8 | x8 | x8 | x8 | x8 | x8 | x8 | x8 | x8 | x8 | x8 | x8 | x8 | x8 | %19
 x8 | x8 | x8 | x8 | x8 | x8 | x8 | x8 | x8 | x8 | x8 | x8 | x8 | _D6 =D2 | x8 | x8 | x8 | x8 | %37
 x8 | x8 | x8 | x8 | x8 |] %42

